packages/foundations/assets/icons/functional/images/logos/db_24.svg

<svg width="24" height="24" viewBox="0 0 24 24" fill="none" xmlns="http://www.w3.org/2000/svg">
<g clip-path="url(#clip0_185_1700)">
<path fill-rule="evenodd" clip-rule="evenodd" d="M20 5C21.1046 5 22 5.89546 22 7.00003V16.986C22.0022 18.0938 21.1077 18.9945 20 19H4.01C2.9038 19 2.0055 18.1062 2 17V7.00003C2 6.46786 2.21208 5.95763 2.58932 5.58227C2.96656 5.2069 3.47784 4.99737 4.01 5H20ZM20 6.42003H4.01C3.85896 6.42038 3.71467 6.4826 3.61074 6.5922C3.50682 6.70179 3.45234 6.84918 3.46 7.00003V16.986C3.45458 17.1355 3.51006 17.2808 3.61374 17.3886C3.71742 17.4964 3.86042 17.5576 4.01 17.558H20C20.1478 17.5549 20.2882 17.4926 20.3897 17.3851C20.4913 17.2776 20.5454 17.1338 20.54 16.986V7.00003C20.5476 6.8509 20.4945 6.70505 20.3927 6.59577C20.291 6.48648 20.1493 6.42308 20 6.42003ZM8.116 7.41803C10.486 7.41803 11.796 8.90203 11.796 11.958C11.8 14.61 10.91 16.56 8.116 16.582H4.752V7.41803H8.116ZM16.584 7.42203C19.162 7.42203 19.2 9.46403 19.2 9.65403C19.1906 10.6387 18.5425 11.503 17.6 11.788C19.268 12.15 19.532 13.362 19.532 14.006C19.532 16.582 16.858 16.582 16 16.582H12.76V7.42203H16.584ZM7.398 8.86003H6.952V15.096H7.734C8.9 15.096 9.578 14.164 9.578 12.148C9.578 10.302 9.378 8.86003 7.398 8.86003ZM15.902 12.742H14.94V15.096H15.842C16.2 15.096 17.324 15.096 17.324 13.92C17.324 13.408 17.044 12.742 15.902 12.742ZM15.632 8.83403H14.94V11.046H15.81C16.578 11.046 17.01 10.538 17.01 9.93802C17.01 9.17802 16.618 8.83403 15.632 8.83403Z" fill="#1A1C1F"/>
</g>
<defs>
<clipPath id="clip0_185_1700">
<rect width="24" height="24" fill="white"/>
</clipPath>
</defs>
</svg>

<svg xmlns="http://www.w3.org/2000/svg" width="24" height="24" fill="none"><g clip-path="url(#a)"><path fill="#1A1C1F" fill-rule="evenodd" d="M20 5a2 2 0 0 1 2 2v9.986A2.01 2.01 0 0 1 20 19H4.01A2.01 2.01 0 0 1 2 17V7a2 2 0 0 1 2.01-2zm0 1.42H4.01a.55.55 0 0 0-.55.58v9.986a.55.55 0 0 0 .55.572H20a.55.55 0 0 0 .54-.572V7a.55.55 0 0 0-.54-.58m-11.884.998c2.37 0 3.68 1.484 3.68 4.54.004 2.652-.886 4.602-3.68 4.624H4.752V7.418zm8.468.004c2.578 0 2.616 2.042 2.616 2.232a2.25 2.25 0 0 1-1.6 2.134c1.668.362 1.932 1.574 1.932 2.218 0 2.576-2.674 2.576-3.532 2.576h-3.24v-9.16zM7.398 8.86h-.446v6.236h.782c1.166 0 1.844-.932 1.844-2.948 0-1.846-.2-3.288-2.18-3.288m8.504 3.882h-.962v2.354h.902c.358 0 1.482 0 1.482-1.176 0-.512-.28-1.178-1.422-1.178m-.27-3.908h-.692v2.212h.87c.768 0 1.2-.508 1.2-1.108 0-.76-.392-1.104-1.378-1.104" clip-rule="evenodd"/></g><defs><clipPath id="a"><path fill="#fff" d="M0 0h24v24H0z"/></clipPath></defs></svg>
